X: 2
T: O'Hanlon's Bridge
M: 6/8
L: 1/8
R: jig
K: Ador
|: e/d/ |\
cBA EAA | EAc edc | dBG DGG | DGB edB |
c2 A EAA | EAe d2 f | gfg dBG | AB/A/G A2 :|
|: b |\
aee Ace | aec baf | gdd baf | gdB GG/A/B |
cee AA/B/c | Bdd e2 f | g2 g dBg | ABG A2 :|
